X: 227
T: XXII.	 Op. 28
C: Fryderyk Chopin
%%abc-version 2.0
%%abcx-abcm2ps-target-version 5.9.1 (29 Sep 2008)
%%abc-creator hum2abc beta
%%abcx-conversion-date 2021/10/03 11:24:05
%%abc-edited-by Jędrzej Mróz
%%abc-edited-by Mateusz Mrugas
%%abcx-initial-encoding-date 2019-04-27
%%humdrum-veritas 3254004149
%%humdrum-veritas-data 2257260293
%%linebreak <none>
%%barnumbers 0
L: 1/8
M: 6/8
N: Derived from 028_13-24-1a-C-022.krn
P: 24 | PRÉLUDES | POUR | le Piano
Q: "Molto agitato." 3/8=132
%%staves {1 2}
V: 1 clef=treble
V: 2 clef=bass
K: Bb
[V:1] z2z [I:setbarnb 1]| 
[V:2] [B,,B,,,][A,,3/A,,,3/][G,,/G,,,/] | 
[V:1] z[E2C2-][D2C2A,2D,2]z & x A,E,x3 | 
[V:2] [G,,2G,,,2]>[G,,2G,,,2][^F,,^F,,,][A,,A,,,] | 
[V:1] z[^F2E2-][G2E2G,2]z & x C^F,x3 | 
[V:2] [A,,2A,,,2]>-[A,,2A,,,2][B,,B,,,][G,,G,,,] | 
[V:1] z[G2E2-][F2E2C2^F,2]z & x CG,x3 | 
[V:2] [B,,2B,,,2]>-[B,,2B,,,2][A,,A,,,][C,C,,] | 
[V:1] z[A2^F2][B2G2B,2]z & x EA,x3 | 
[V:2] [C,2C,,2]>-[C,2C,,2][D,D,,][B,,B,,,] | 
[V:1] z[g2e2][^f2d2A2^F2]z & x BGx3 | 
[V:2] [^C2^C,2]>-[C2C,2][DD,][A,A,,] | 
[V:1] z[f2_d2][=e2c2G2=E2]z & x _AFx3 | 
[V:2] [=B,2=B,,2]>-[B,2B,,2][CC,][G,G,,] | 
[V:1] z[f2_d2][=e2c2G2=E2]z & x _AFx3 | 
[V:2] [=B,2=B,,2]>-[B,2B,,2][CC,][G,G,,] | 
[V:1] z !accent![_ecA_E] zz2z | 
[V:2] [G,G,,][^F,^F,,][G,G,,] [B,B,,][A,A,,]z/[G,/G,,/] | 
[V:1] z[e2c2-][d2c2A2D2]z & x AEx3 | 
[V:2] [G,2G,,2]>-[G,2G,,2][^F,^F,,][A,A,,] | 
[V:1] z[^f2e2-][g2e2G2]z & x c^Fx3 | 
[V:2] [A,2A,,2]>-[A,2A,,2][B,B,,][G,G,,] | 
[V:1] x[g2e2-][^f2e2c2^F2]z & z cGx3 | 
[V:2] [B,2B,,2]>-[B,2B,,2][A,A,,][CC,] | 
[V:1] z[a2^f2][b2g2B2]z & x !accent!eAx3 | 
[V:2] [C2C,2]>-[C2C,2][DD,][B,B,,] | 
[V:1] z!accent!b2z!accent![a2g2] & x gB x =eA | 
[V:2] (3[GG,][EE,][DD,][D2D,2][^C2^C,2] | 
[V:1] z!accent!_a2z!accent![g2f2] & x fA x dG | 
[V:2] [FF,][_DD,][CC,][C2C,2][=B,=B,,] | 
[V:1] z!accent![e2c2]z!accent![e2c2] & x GE x _GE | 
[V:2] [EE,][CC,][B,B,,] [A,A,,][CC,][_A,_A,,] | 
[V:1] .[ecGE].[ec_AE] zz2z | 
[V:2] [G,G,,][_G,_G,,][F,F,,] [=E,=E,,][_E,_E,,][D,D,,] | 
[V:1] z[f2_d2]z[g2e2] & x !accent!_AF x !accent!BG | 
[V:2] [_D,_D,,][DD,][DD,] [DD,][DD,][DD,] | 
[V:1] z[_a2e2]z[e2c2] & x !accent!c_A x !accent!AE | 
[V:2] [CC,][B,B,,][_A,_A,,] [G,G,,][F,F,,][E,E,,] | 
[V:1] z[f2_d2]z[g2e2] & x !accent!AF x !accent!BG | 
[V:2] [_D,_D,,][DD,][DD,] [DD,][DD,][DD,] | 
[V:1] z[_a2e2]z[g2e2] & x !accent!c_A x !accent!cG | 
[V:2] [CC,][B,B,,][_A,_A,,] [G,G,,][F,F,,][E,E,,] | 
[V:1] z[f2d2]z[^f2=d2] & x !accent!_AF x !accent!=A^F | 
[V:2] [=D,=D,,][CC,][CC,] [CC,][CC,][CC,] | 
[V:1] z[g2d2]z[c2A2] & x !accent!BG x !accent!GC | 
[V:2] [B,B,,][A,A,,][G,G,,] [E,E,,][D,D,,][C,C,,] | 
[V:1] z[d2B2]z[G2E2] & x !accent!GD x !accent!B,G, | 
[V:2] [B,,2B,,,2]z[E,2E,,2]z | 
[V:1] z[c2G2]z !accent![B^F][AC] & x !accent!ECx3 | 
[V:2] [A,,2A,,,2]z[D,2D,,2]z | 
[V:1] z[f2_d2]z[g2e2] & x !accent!_AF x !accent!BG | 
[V:2] [_D,_D,,][DD,][DD,] [DD,][DD,][DD,] | 
[V:1] z[_a2e2]z[e2c2] & x !accent!c_A x !accent!AE | 
[V:2] [CC,][B,B,,][_A,_A,,] [G,G,,][F,F,,][E,E,,] | 
[V:1] z[f2_d2]z[g2e2] & x !accent!AF x !accent!BG | 
[V:2] [_D,_D,,][DD,][DD,] [DD,][DD,][DD,] | 
[V:1] z[_a2e2]z[g2e2] & x !accent!c_A x !accent!cG | 
[V:2] [CC,][B,B,,][_A,_A,,] [G,G,,][F,F,,][E,E,,] | 
[V:1] z[f2d2]z[^f2=d2] & x !accent!_AF x !accent!=AF | 
[V:2] [=D,=D,,][CC,][CC,] [CC,][CC,][CC,] | 
[V:1] z[g2d2]z[c2A2] & x !accent!BG x !accent!GC | 
[V:2] [B,B,,][A,A,,][G,G,,] [E,E,,][D,D,,][C,C,,] | 
[V:1] z[d2B2]z[G2E2] & x !accent!GD x !accent!B,G, | 
[V:2] [B,,2B,,,2]z[E,2E,,2]z | 
[V:1] z[c2G2]z !accent![B^F][AC] & x !accent!ECx3 | 
[V:2] [A,,2A,,,2]z[D,2D,,2]z | 
[V:1] z[d2B2]z[G2E2] & x !accent!GD x !accent!B,G, | 
[V:2] [B,,2B,,,2]z[E,2E,,2]z | 
[V:1] zc2z[G2E2] & x !accent![GE][^FC] x !accent!B,G, | 
[V:2] [A,,2A,,,2]>[B,,2B,,,2][A,,A,,,]z/[G,,/G,,,/] | 
[V:1] z [EC-A,]E,[D2C2A,2D,2]z & xx2x3 | 
[V:2] [G,,2G,,,2]>-[G,,2G,,,2][^F,,^F,,,][A,,A,,,] | 
[V:1] z!accent![^F2E2-][G2E2G,2]z & x C^F,x3 | 
[V:2] [A,,2A,,,2]>-[A,,2A,,,2][B,,B,,,][G,,G,,,] | 
[V:1] z!accent![^F2E2-][G2E2G,2]z & x C^F,x3 | 
[V:2] [A,,2A,,,2]>-[A,,2A,,,2][B,,B,,,][G,,G,,,] | 
[V:1] z!accent![^f2e2-][g2e2G2]z & x c^Fx3 | 
[V:2] [A,,2A,,,2]>-!accent![A,,2A,,,2][B,,B,,,][G,,G,,,] | 
[V:1] [g'2e'2b2g2]zz2z | 
[V:2] .[^C,,2^C,,,2]zz2z | 
[V:1] [d3B3G3D3][^F3D3C3F,3] | 
[V:2] [D,,3D,,,3][D,3A,,3D,,3] | 
[V:1] !fermata!!arpeggio![G6D6B,6G,6] |]  
[V:2] {/E,,,2}!fermata![D,6G,,6] |]
